X: 1
T: Port Muiris \`i Dlaigh
M: 2/4
L: 1/8
R: polka
K: Gmaj
|:B/c/|de/d/ cA|GB BA/G/|FA AF|GA Bc|
       de/d/ c/B/A|GB BA/G/|FA cA|G2 G:|
|:A/G/|FG AB|cd/c/ BA|Bc/B/ Bc/B/|AG c/B/A/G/|
           F>G AB|cd/c/ BA|Bd cA|G2 G:|
